X:5112
T:Albert's Orange Eel
M:4/4
R:Reel
L:1/8
Q:180
C:Aidan Crossey
K:D
|:B2dB AFED|F2AF BFAF|B2dB AFdB|ABAF EDFA|
B2dB AFED|F2AF BFAF|B3d e3f|edef d4:||
|:e2ef edBd|edfd gdf2|d3e dBAB|d2fd edBd|
e3f edBd|edfd gdf2|a3b afec|BABc d4:||
